X:187
T:Hilonday
M:6/8
L:1/8
Q:1/4=3D100
K:GMIX
GAB|\
c2c d2B|c2c B2G|A3 A3|A6|
d2B c2B|A2G C2D|E3-E2F|G3 G<AG|G3-G2||
